icons/farm.svg

<svg width="16" height="16" viewBox="0 0 16 16" fill="none" xmlns="http://www.w3.org/2000/svg">
<path fill-rule="evenodd" clip-rule="evenodd" d="M8.79747 9.01748C6.38734 7.51649 2.59494 7.93124 1 8.32624C2.77215 7.09187 3.92898 6.88614 5.0858 6.68041C5.31716 6.63927 5.54853 6.59812 5.78481 6.54875C5.81435 6.48291 5.90886 6.292 6.05063 6.055C6.22785 5.75875 6.05063 5.66 5.87342 5.75875C5.6962 5.8575 5.43038 5.8575 5.43038 5.56125C5.43038 5.265 4.89873 4.96876 4.81013 5.56125C4.73924 6.03525 4.95781 6.35125 5.07595 6.45C4.72152 6.38416 3.78228 6.292 2.86076 6.45C3.29406 6.28903 3.9628 5.20973 4.33929 4.60209C4.42474 4.46419 4.49513 4.35058 4.5443 4.27751C4.76443 3.95041 4.9238 4.02962 5.22368 4.17868C5.28592 4.20961 5.35423 4.24356 5.43038 4.27751C5.54186 4.32721 5.62529 4.3769 5.70607 4.42502C5.94635 4.56815 6.16326 4.69736 7.02532 4.77126C7.11392 3.38877 7.73418 2.10503 8.35443 2.00628C8.97468 1.90753 9.41772 2.99377 9.59494 3.88251C9.77215 4.77126 9.94937 5.16626 10.3038 5.26501C10.4864 5.31589 10.622 5.0259 10.759 4.73283C10.8879 4.45716 11.0181 4.17876 11.1899 4.17876C11.4734 4.17876 11.6624 4.77126 11.7215 5.06751C12.3418 5.23209 13.8658 5.95625 15 7.53624C14.2203 6.74625 12.8439 6.41708 12.2532 6.35125C12.135 6.35125 11.7747 6.39075 11.2785 6.54875C10.7823 6.23275 10.0675 6.21958 9.77215 6.2525V6.74625C10.3038 6.71333 11.8101 6.82525 13.5823 7.53624C12.7848 7.53624 10.7468 7.83249 8.79747 9.01748ZM7.46836 6.74625L6.49367 6.845L7.82279 5.26501L7.46836 6.74625Z" fill="#DD50AD"/>
<path d="M14.9114 8.82007L15 8.22757C12.6076 8.22757 9.06329 8.62257 4.98734 13.2638C5.51898 13.6588 6.49367 14.1525 7.82278 13.955L7.86732 13.8886C8.47019 12.9884 10.6817 9.68587 14.9114 8.82007Z" fill="#DD50AD"/>
<path d="M8.88608 13.955C9.41772 12.8358 11.2785 10.4 14.4684 9.60999C13.2278 12.6712 10.3038 13.7575 8.88608 13.955Z" fill="#DD50AD"/>
<path d="M8.08861 9.41249C6.03291 10.6765 4.75105 12.2433 4.36709 12.8687C3.65823 12.5396 2.02785 11.3282 1.17721 9.11624C3.03797 8.52375 5.78481 8.52375 8.08861 9.41249Z" fill="#DD50AD"/>
</svg>

<svg xmlns="http://www.w3.org/2000/svg" width="16" height="16" fill="none"><path fill="#DD50AD" fill-rule="evenodd" d="M8.797 9.017c-2.41-1.5-6.202-1.086-7.797-.69 1.772-1.235 2.929-1.44 4.086-1.647.231-.04.463-.082.699-.131a5.49 5.49 0 0 1 .266-.494c.177-.296 0-.395-.178-.296-.177.098-.443.098-.443-.198 0-.296-.531-.592-.62 0-.07.474.148.79.266.889a7.083 7.083 0 0 0-2.215 0c.433-.161 1.102-1.24 1.478-1.848.086-.138.156-.251.205-.324.22-.328.38-.248.68-.1.062.032.13.066.206.1.112.05.195.099.276.147.24.143.457.272 1.32.346.088-1.382.708-2.666 1.328-2.765.62-.098 1.064.988 1.24 1.877.178.888.355 1.283.71 1.382.182.05.318-.24.455-.532.129-.276.26-.554.43-.554.284 0 .473.592.533.889.62.164 2.144.888 3.278 2.468-.78-.79-2.156-1.119-2.747-1.185-.118 0-.478.04-.975.198-.496-.316-1.21-.33-1.506-.296v.493c.532-.033 2.038.08 3.81.79-.797 0-2.835.296-4.785 1.481Zm-1.329-2.27-.974.098 1.329-1.58-.355 1.481Z" clip-rule="evenodd"/><path fill="#DD50AD" d="M14.911 8.82 15 8.228c-2.392 0-5.937.395-10.013 5.036a3.766 3.766 0 0 0 2.836.691l.044-.066c.603-.9 2.815-4.203 7.044-5.069Z"/><path fill="#DD50AD" d="M8.886 13.955c.532-1.12 2.393-3.555 5.582-4.345-1.24 3.061-4.164 4.148-5.582 4.345ZM8.089 9.412c-2.056 1.264-3.338 2.831-3.722 3.457-.709-.33-2.34-1.54-3.19-3.753 1.861-.592 4.608-.592 6.912.296Z"/></svg>
